X: 229
T: Herb Archer's 1st Set Tune
B: australian dance tunes
M:6/8
L:1/8
Q: 3/8=100
K:D
V:1 
(3A,B,C|:D2 F A2 d|d2 f ecA|G2 A F2 G|E2 F GFE|!
D2 F A2 d|d2 f e2 f|g2 e dBc|d3 z3:|!
|:fgf d2 f|g2 f e3|fgf d2 f|edB A3|!
fgf d2 f|g2 f e3|f2 a g2 f|eBc d2:|
% abcbook-tune_id 62a07850dbd2e0f2e36bad00


% abcbook-boost 0
% abcbook-tablature 
% abcbook-transpose 
% abcbook-lastupdated 1654683750426
% abcbook-soundfonts 
% abcbook-repeats 1


